X:2515
T:Hunt The Squirrel
B: Playford ("Squirrel")
M:6/8
O:England
R:Jig
Z:Richard Robinson 
%%TUNEURL: http://www.leeds.ac.uk/music/Info/RRTuneBk/gettune/00000c8b.html
%%ID:00000c8b
K:A
A2c e2f | e3 c3 | ABc B2A | ABc B2A | A2c e2f | e3 c3 | ABc B2A | A6 :|
d2e fed | d2e fed | d2e f2g | a3 a2f | ec2 e2c | e3 c2B | ABc B2A | A6 :|
